X:782
T:Reel 782
M:4/4
K:Ador
L:1/8
GF|EDCE A,CB,G,|E,A,G,A, DFED| (3EDC A,C B,A,G,A,||CA,B,G, A,2:||2CEDB, CA,A,2|ED (3CCC ECGC| (3B,CB, G,B,  (3B,CD B,G,| (3CDC EC GCEC|DB,G,B, A,2G,B,| (3CDC  (3CDC B,C (3CB,C |B,G,G,B, CDED|C>C (3CCC ECGE|DB,G,B, D2|
